svgs/covpass.svg

<svg width="192" height="192" viewBox="0 0 192 192" fill="none" xmlns="http://www.w3.org/2000/svg">
<path d="M151.984 126.907V123.919C151.984 123.919 159.353 119.197 151.984 113.973H143.001" stroke="black" stroke-width="8" stroke-linecap="round" stroke-linejoin="round"/>
<path d="M142.751 127.281V123.919C142.751 123.919 135.382 119.198 142.751 113.973" stroke="black" stroke-width="8" stroke-linecap="round" stroke-linejoin="round"/>
<path d="M134.428 128.405L133.097 125.73C133.097 125.73 137.591 118.22 128.666 116.825L120.624 120.827" stroke="black" stroke-width="8" stroke-linecap="round" stroke-linejoin="round"/>
<path d="M126.163 132.518L124.832 129.843C124.832 129.843 116.131 128.898 120.401 120.938" stroke="black" stroke-width="8" stroke-linecap="round" stroke-linejoin="round"/>
<path d="M120.991 137.868L118.269 136.366C118.269 136.366 117.794 127.627 109.616 131.463L105.188 139.278" stroke="black" stroke-width="8" stroke-linecap="round" stroke-linejoin="round"/>
<path d="M116.851 146.154L113.718 144.399C113.718 144.399 105.978 148.483 105.065 139.496" stroke="black" stroke-width="8" stroke-linecap="round" stroke-linejoin="round"/>
<path d="M115.658 152.446L111.239 152.499C111.239 152.499 106.387 145.215 101.294 152.675L101.453 161.656" stroke="black" stroke-width="8" stroke-linecap="round" stroke-linejoin="round"/>
<path d="M114.39 161.677L111.402 161.73C111.402 161.73 106.812 169.182 101.458 161.906" stroke="black" stroke-width="8" stroke-linecap="round" stroke-linejoin="round"/>
<path d="M116 152C116.089 149.967 116.425 147.952 117 146" stroke="black" stroke-width="8" stroke-linecap="round" stroke-linejoin="round"/>
<path d="M121 138C122.428 136.112 124.11 134.429 126 133" stroke="black" stroke-width="8" stroke-linecap="round" stroke-linejoin="round"/>
<path d="M135 129C137.594 127.541 140.294 126.873 143 127.02" stroke="black" stroke-width="8" stroke-linecap="round" stroke-linejoin="round"/>
<path d="M58 77.5484L86.0621 106L139 53" stroke="black" stroke-width="12" stroke-linecap="round" stroke-linejoin="round"/>
<path d="M152.095 126.705C152.095 126.705 158.999 121.922 158.999 107.638V40.8041C158.999 40.8041 159.119 39.2275 157.107 38.6793C153.875 37.7985 95.4049 20 95.4049 20L35.0979 38.4859C35.0979 38.4859 32.7052 39.0181 32.266 40.6459C31.6676 42.8634 32.266 111.941 32.266 111.941C32.266 111.941 31.982 133.236 70.5283 158.317L95.3826 172L114.285 161.693" stroke="black" stroke-width="8" stroke-linecap="round" stroke-linejoin="round"/>
</svg>

<svg width="192" height="192" fill="none" xmlns="http://www.w3.org/2000/svg"><path d="M151.984 126.907v-2.988s7.369-4.722 0-9.946h-8.983M142.751 127.281v-3.362s-7.369-4.721 0-9.946M134.428 128.405l-1.331-2.675s4.494-7.51-4.431-8.905l-8.042 4.002M126.163 132.518l-1.331-2.675s-8.701-.945-4.431-8.905M120.991 137.868l-2.722-1.502s-.475-8.739-8.653-4.903l-4.428 7.815M116.851 146.154l-3.133-1.755s-7.74 4.084-8.653-4.903M115.658 152.446l-4.419.053s-4.852-7.284-9.945.176l.159 8.981M114.39 161.677l-2.988.053s-4.59 7.452-9.944.176M116 152a25.124 25.124 0 0 1 1-6M121 138a25.714 25.714 0 0 1 5-5" stroke="#000" stroke-width="8" stroke-linecap="round" stroke-linejoin="round"/><path d="M135 129c2.594-1.459 5.294-2.127 8-1.98" stroke="#000" stroke-width="8" stroke-linecap="round" stroke-linejoin="round"/><path d="M58 77.548 86.062 106 139 53" stroke="#000" stroke-width="12" stroke-linecap="round" stroke-linejoin="round"/><path d="M152.095 126.705s6.904-4.783 6.904-19.067V40.804s.12-1.577-1.892-2.125C153.875 37.8 95.405 20 95.405 20L35.098 38.486s-2.393.532-2.832 2.16c-.598 2.217 0 71.295 0 71.295s-.284 21.295 38.262 46.376L95.383 172l18.902-10.307" stroke="#000" stroke-width="8" stroke-linecap="round" stroke-linejoin="round"/></svg>
